X: 28
M:2/4
L:1/16
K:A
uE2"^Segno"|\
vABcA EBzuc | defd cezg | aecA dfzd | cABG E2zE |
uE2|\
vAceg a2a2 | gefg e2>g2 | aecA dfzud | cABG E2zuE |
vAceg a2a2 | gefg e2>g2 | aecA dfzud |\
 cABG FAEG "^Segno""_D.S."|]


